X:1
T:Title
%%score ( 1 2 ) { 3 | ( 4 5 ) }
L:1/8
Q:1/4=80
M:12/8
K:C
V:1 treble nm="Singstimme\nVoice"
V:2 treble 
V:3 treble nm="Pianoforte"
V:4 bass 
V:5 bass 
V:1
"^Zartlich langsam" z6 | z2 z z2 z!p! c3- c2 c | e6 d3- d2 d | c3- c2 z c2 z z2 z | z6 A3- A2 A | %5
 c6- c3 B2 B | A6 E2 z z2 z | z6 c3- c2 c | d6- d3 c2 c | B6- B3 z2 z | z6 B3- B2 B | d6 c3- c2 c | %12
 (B6 E2) z z2 z | z6 c3- c2 c | d6- d3 c2 c | B6- B3 z2 z | z6 B3- B2 B | d6 c3- c2 c | %18
 B6 E2 z z2 z | z6 c3- c2 c | e6- e3 d2 d | c6- c2 z z2 z | z6 A3- A2 A | c6- c3 B2 B | %24
 c6- c3 z2 z | z12 | z6 z2 z _E2 F | G6- G3 _B2 G | G6- G3 C2 D | _E6- E3 G2 E | _E6- E3 z2 z | %31
 z6 z3 G3 | c6 c3 B3 | c3 z2 z z2 z z2 z | z6 G3- G2 A | c6- c3 B2 A | G6- G3 A2 E | D6- D3 D3 | %38
 G6- G3 G3 | c6 B3- B2 A | G3- G2 G G3 A3 | B6 z2 z z2 z | ^G6 z2 z z2 z | z12 | z12 |] %45
V:2
 x6 | x12 | x12 | x12 | x12 | x12 | x12 | x12 | x12 | x12 | x12 | x12 | x12 | x12 | x12 | x12 | %16
 x12 | x12 | x12 | x12 | x12 | x12 | x12 | x12 | x12 | x12 | x12 | x12 | x12 | x12 | x12 | x12 | %32
 x12 | x12 | x12 | x12 | x12 | x12 | x12 | x12 | x12 | x6 B3- B2 A | x12 | x12 | x12 |] %45
V:3
!f! z/ ([A,C]/E/[Ac]/E/[Ac]/ E/[CA]/E/[A,C]/E,/[I:staff +1] [A,,C,]/)[I:staff -1] ([CE]/A/[ce]/A/[ce]/ A/[Ec]/A/[CE]/A,/[I:staff +1]E,/) | %1
!p![I:staff -1] z/ ([A,C]/E/[Ac]/E/[Ac]/ E/[CA]/E/[A,C]/[I:staff +1]E,/)[I:staff -1] z/ ([A,C]/E/[Ac]/E/[Ac]/ E/[CA]/E/[A,C]/E,/[I:staff +1]A,,/) | %2
!p![I:staff -1] z/ ([A,C]/E/[Ac]/E/[Ac]/ E/[CA]/E/[A,C]/[I:staff +1]E,/)[I:staff -1] z/ ([^G,B,]/E/[^GB]/E/[GB]/ E/[B,G]/E/[G,B,]/E,/[I:staff +1]B,,/) | %3
[I:staff -1] z/ ([A,C]/E/[Ac]/E/[Ac]/ E/[CA]/E/[A,C]/[I:staff +1]E,/)[I:staff -1] z/ ([A,C]/E/[Ac]/E/[Ac]/ E/[CA]/E/[A,C]/E,/[I:staff +1]A,,/) | %4
[I:staff -1] z/ ([^F,A,]/D/[^FA]/D/[FA]/ D/[A,F]/D/[F,A,]/D,/[I:staff +1]A,,/)[I:staff -1] z/ ([D,F,]/A,/[DF]/A,/[DF]/ A,/[F,D]/A,/[I:staff +1]F,/D,/A,,/) | %5
[I:staff -1] z/ ([A,C]/F/[Ac]/F/[Ac]/ F/[CA]/F/[A,C]/[I:staff +1]F,/)[I:staff -1] z/ ([B,E]/G/[Be]/G/[Be]/ G/[EB]/G/[B,E]/G,/[I:staff +1]E,/) | %6
[I:staff -1] z/ ([A,C]/E/[Ac]/E/[Ac]/ E/[CA]/E/[A,C]/[I:staff +1]E,/)[I:staff -1] z/ ([A,C]/E/[Ac]/E/[Ac]/ E/[CA]/E/[A,C]/E,/[I:staff +1]A,,/) | %7
[I:staff -1] z/ ([A,C]/E/[Ac]/E/[Ac]/ E/[CA]/E/[A,C]/[I:staff +1]E,/)[I:staff -1] z/ ([A,C]/E/[Ac]/E/[Ac]/ E/[CA]/E/[A,C]/E,/[I:staff +1]A,,/) | %8
[I:staff -1] z/ ([A,C]/^F/[Ac]/F/[Ac]/ F/[CA]/F/[A,C]/[I:staff +1]^F,/)[I:staff -1] z/ ([A,C]/F/[Ac]/F/[Ac]/ F/[CA]/F/[A,C]/F,/[I:staff +1]D,/) | %9
[I:staff -1] z/ ([G,B,]/D/[GB]/D/[GB]/ D/[B,G]/D/[G,B,]/[I:staff +1]D,/)[I:staff -1] z/ ([G,B,]/D/[GB]/D/[GB]/ D/[B,G]/D/[G,B,]/D,/[I:staff +1]G,,/) | %10
[I:staff -1] z/ [^G,B,]/E/[^GB]/E/[GB]/ E/[B,G]/E/[G,B,]/[I:staff +1]E,/[I:staff -1] z/ ([G,B,]/E/[GB]/E/[GB]/ E/[B,G]/E/[G,B,]/E,/[I:staff +1]E,,/) | %11
[I:staff -1] z/ ([A,C]/E/[Ac]/E/[Ac]/ E/[CA]/E/[A,C]/[I:staff +1]E,/)[I:staff -1] z/ ([A,C]/E/[Ac]/E/[Ac]/ E/[CA]/E/[A,C]/E,/[I:staff +1]A,,/) | %12
[I:staff -1] z/ [^G,B,]/E/[^GB]/E/[GB]/ E/[B,G]/E/[G,B,]/[I:staff +1]E,/[I:staff -1] z/ ([G,B,]/E/[GB]/E/[GB]/ E/[B,G]/E/[G,B,]/E,/[I:staff +1]E,,/) | %13
[I:staff -1] z/ ([A,C]/E/[Ac]/E/[Ac]/ E/[CA]/E/[A,C]/[I:staff +1]E,/)[I:staff -1] z/ ([A,C]/E/[Ac]/E/[Ac]/ E/[CA]/E/[A,C]/E,/[I:staff +1]A,,/) | %14
[I:staff -1] z/ ([A,C]/^F/[Ac]/F/[Ac]/ F/[CA]/F/[A,C]/[I:staff +1]^F,/)[I:staff -1] z/ ([A,C]/F/[Ac]/F/[Ac]/ F/[CA]/F/[A,C]/F,/[I:staff +1]D,/) | %15
[I:staff -1] z/ ([G,B,]/D/[GB]/D/[GB]/ D/[B,G]/D/[G,B,]/[I:staff +1]D,/)[I:staff -1] z/ ([G,B,]/D/[GB]/D/[GB]/ D/[B,G]/D/[G,B,]/D,/[I:staff +1]G,,/) | %16
[I:staff -1] z/ [^G,B,]/E/[^GB]/E/[GB]/ E/[B,G]/E/[G,B,]/[I:staff +1]E,/[I:staff -1] z/ ([G,B,]/E/[GB]/E/[GB]/ E/[B,G]/E/[G,B,]/E,/[I:staff +1]E,,/) | %17
[I:staff -1] z/ ([A,C]/E/[Ac]/E/[Ac]/ E/[CA]/E/[A,C]/[I:staff +1]E,/)[I:staff -1] z/ ([A,C]/E/[Ac]/E/[Ac]/ E/[CA]/E/[A,C]/E,/[I:staff +1]A,,/) | %18
[I:staff -1] z/ [^G,B,]/E/[^GB]/E/[GB]/ E/[B,G]/E/[G,B,]/[I:staff +1]E,/[I:staff -1] z/ ([G,B,]/E/[GB]/E/[GB]/ E/[B,G]/E/[G,B,]/E,/[I:staff +1]E,,/) | %19
[I:staff -1] z/ ([A,C]/E/[Ac]/E/[Ac]/ E/[CA]/E/[A,C]/[I:staff +1]E,/)[I:staff -1] z/ ([A,C]/E/[Ac]/E/[Ac]/ E/[CA]/E/[A,C]/E,/[I:staff +1]A,,/) | %20
[I:staff -1] z/ ([G,C]/E/[Gc]/E/[Gc]/ E/[CG]/E/[G,C]/[I:staff +1]E,/)[I:staff -1] z/ ([G,D]/F/[Gd]/F/[Gd]/ G/[DF]/D/[G,D]/G,/[I:staff +1]D,/) | %21
[I:staff -1] z/ ([E,C]/E/[Gc]/E/[Gc]/ E/[CG]/E/[G,C]/[I:staff +1]E,/)[I:staff -1] z/ ([E,C]/E/[Gc]/E/[Gc]/ E/[CG]/E/[G,C]/E,/[I:staff +1][C,,C,]/) | %22
[I:staff -1] z/ ([F,A,]/D/[FA]/D/[FA]/ D/[A,F]/D/[F,A,]/[I:staff +1]D,/)[I:staff -1] z/ ([F,A,]/D/[FA]/D/[FA]/ D/[A,F]/D/[F,A,]/D,/[I:staff +1]D,,/) | %23
[I:staff -1] z/ ([G,B,]/F/[GB]/F/[GB]/ F/[B,G]/F/[G,B,]/[I:staff +1]F,/)[I:staff -1] z/ ([G,B,]/F/[GB]/F/[GB]/ F/[B,G]/F/[G,B,]/F,/[I:staff +1][G,,,G,,]/) | %24
[I:staff -1] z/ ([E,C]/E/[Gc]/E/[Gc]/ E/[CG]/E/[G,C]/[I:staff +1]E,/)[I:staff -1] z/ ([E,C]/E/[Gc]/E/[Gc]/ E/[CG]/E/[G,C]/E,/[I:staff +1][C,,C,]/) | %25
[I:staff -1] z/ ([A,C]/F/[Ac]/F/[Ac]/ F/[CA]/F/[A,C]/F,/[I:staff +1]C,/)[I:staff -1] z/ ([F,C]/_A,/[CF]/A,/[CF]/[I:staff +1] C/[I:staff -1][A,F]/C/[FA]/C/[FA]/) | %26
 z/ ([G,C]/_E/[Gc]/E/[Gc]/ E/[CG]/E/[G,C]/[I:staff +1]_E,/)[I:staff -1] z/ ([G,C]/E/[Gc]/E/[Gc]/ E/[CG]/E/[G,C]/E,/[I:staff +1]C,/) | %27
[I:staff -1] z/ ([F,B,]/D/[FB]/D/[FB]/ D/[B,F]/D/[F,B,]/[I:staff +1]D,/)[I:staff -1] z/ ([G,B,]/F/[B,D]/F/[B,D]/ F/[B,D]/F/[B,D]/F/[B,D]/ | %28
[I:staff +1] [C,,C,]/)[I:staff -1] ([G,C]/_E/[Gc]/E/[Gc]/ E/[CG]/E/[G,C]/[I:staff +1]E,/)[I:staff -1] z/ ([G,C]/E/[Gc]/E/[Gc]/ E/[CG]/E/[G,C]/E,/[I:staff +1]C,/) | %29
[I:staff -1] z/[I:staff +1] ([G,C]/[I:staff -1]_E/[Gc]/E/[Gc]/ E/[CG]/E/[G,C]/E,/[I:staff +1]C,/)[I:staff -1] z/[I:staff +1] ([_E,G,]/[I:staff -1]C/[EG]/C/[EG]/ C/[EG]/C/[EG]/C/[EG]/ | %30
[I:staff +1] [_A,,_A,]/)[I:staff -1] ([C_E]/_A/[c_e]/A/[ce]/ A/[Ec]/A/[CE]/A,/[I:staff +1]_E,/)[I:staff -1] z/ ([A,C]/E/[Ac]/E/[Ac]/ E/[Ac]/E/[Ac]/E/[Ac]/ | %31
[I:staff +1] [_E,,_E,]/)[I:staff -1] ([G,B,]/F/[GB]/F/[GB]/ F/[GB]/F/[GB]/F/[GB]/ F/[GB]/F/[GB]/F/[GB]/ F/[GB]/F/[GB]/F/[GB]/) | %32
 z/ ([_A,C]/F/[_Ac]/F/[Ac]/ F/[CA]/F/[A,C]/F,/[I:staff +1][C,,C,]/)[I:staff -1] z/ ([G,B,]/F/[GB]/F/[GB]/ F/[B,G]/F/[G,B,]/F,/[I:staff +1][G,,,G,,]/) | %33
[I:staff -1] z/[I:staff +1] ([E,G,]/[I:staff -1]C/[EG]/C/[EG]/ C/[EG]/C/[EG]/C/[EG]/ C/[EG]/C/[EG]/C/[EG]/ C/[EG]/C/[EG]/C/[EG]/) | %34
 z/ [DF]/G,/[DF]/G,/[DF]/ G,/[DF]/G,/[DF]/G,/[DF]/ G,/[DF]/G,/[DF]/G,/[DF]/ G,/[DF]/G,/[DF]/G,/[DF]/ | %35
 z/ [CE]/G,/[CE]/G,/[CE]/ G,/[CE]/G,/[CE]/G,/[CE]/ G,/[CE]/G,/[CE]/G,/[CE]/ G,/[CE]/G,/[CE]/G,/[CE]/ | %36
 z/ [B,D]/G,/[B,D]/G,/[B,D]/ G,/[B,D]/G,/[B,D]/G,/[B,D]/ G,/[B,D]/G,/[B,D]/G,/[B,D]/ G,/[B,D]/G,/[B,D]/G,/[B,D]/ | %37
 [A,CD]/[I:staff +1]^F,/[I:staff -1][A,CD]/[I:staff +1]D,/[I:staff -1][A,CD]/[I:staff +1]D,/[I:staff -1] [A,CD]/[I:staff +1]D,/[I:staff -1][A,CD]/[I:staff +1]D,/[I:staff -1][A,CD]/[I:staff +1]D,/[I:staff -1] [A,CD]/[I:staff +1]D,/[I:staff -1][A,CD]/[I:staff +1]D,/[I:staff -1][A,CD]/[I:staff +1]D,/[I:staff -1] [A,CD]/[I:staff +1]D,/[I:staff -1][A,CD]/[I:staff +1]D,/[I:staff -1][A,CD]/[I:staff +1]D,/ | %38
[I:staff -1] [B,D]/[I:staff +1]F,/[I:staff -1][B,D]/[I:staff +1]D,/[I:staff -1][B,D]/[I:staff +1]D,/[I:staff -1] [B,D]/[I:staff +1]F,/[I:staff -1][B,D]/[I:staff +1]D,/[I:staff -1][B,D]/[I:staff +1]D,/[I:staff -1] [B,D]/[I:staff +1]F,/[I:staff -1][B,D]/[I:staff +1]D,/[I:staff -1][B,D]/[I:staff +1]D,/[I:staff -1] [B,D]/[I:staff +1]F,/[I:staff -1][B,D]/[I:staff +1]D,/[I:staff -1][B,D]/[I:staff +1]D,/ | %39
[I:staff -1] z/ [CE]/G,/[CE]/G,/[CE]/ G,/[CE]/G,/[CE]/G,/[CE]/ G,/[B,F]/G,/[B,F]/G,/[B,F]/ G,/[B,F]/G,/[B,F]/G,/[B,F]/ | %40
[I:staff +1] [C,,C,]/[I:staff -1] [G,CE]/[I:staff +1]E,/[G,C]/[I:staff -1][CE]/[I:staff +1]E,/[I:staff -1] [CE]/[I:staff +1]G,/[I:staff -1][CE]/[I:staff +1]E,/[I:staff -1][CE]/[I:staff +1]E,/[I:staff -1][CE]/[I:staff +1]G,/[I:staff -1] [CE]/[I:staff +1]G,/[I:staff -1][CE]/[I:staff +1]G,/[I:staff -1][CE]/[I:staff +1]G,/[I:staff -1] [CE]/[I:staff +1]^F,/[I:staff -1][CE]/[I:staff +1]F,/[I:staff -1][CE]/[I:staff +1]F,/ | %41
[I:staff -1] [B,E]/[I:staff +1]^G,/[I:staff -1][B,E]/[I:staff +1]E,/[I:staff -1][B,E]/[I:staff +1]E,/[I:staff -1] [B,E]/[I:staff +1]^G,/[I:staff -1][B,E]/[I:staff +1]E,/[I:staff -1][B,E]/[I:staff +1]E,/[I:staff -1] [B,D]/[I:staff +1]F,/[I:staff -1][B,D]/[I:staff +1]F,/[I:staff -1][B,D]/[I:staff +1]F,/[I:staff -1][B,D]/[I:staff +1]F,/[I:staff -1] [B,D]/[I:staff +1]^F,/[I:staff -1][B,D]/[I:staff +1]F,/[I:staff -1][B,D]/[I:staff +1]F,/ | %42
[I:staff -1] z/ [^G,B,]/E/[^GB]/E/[GB]/ E/[B,G]/E/[G,B,]/[I:staff +1]E,/[I:staff -1] z/ ([G,B,]/E/[GB]/E/[GB]/ E/[B,G]/E/[G,B,]/E,/[I:staff +1]E,,/) | %43
[I:staff -1] z/ ([A,C]/E/[Ac]/E/[Ac]/ E/[CA]/E/[A,C]/E,/[I:staff +1]A,,/)[I:staff -1] z/ ([CE]/A/[ce]/A/[ce]/ A/[Ec]/A/[CE]/A,/[I:staff +1]A,,/) | %44
 !fermata!A,,,12 |] %45
V:4
 [A,,,E,,]6 z2 z z2 z | [A,,,E,,]6 z2 z z2 z | [A,,,E,,]6 z2 z z2 z | [A,,,E,,]6 z2 z z2 z | %4
 [D,,A,,D,]6- [D,,A,,D,]3- [D,,A,,D,]2 z | [A,,,A,,]6- [A,,,A,,]3 z2 z | [A,,,E,,]6 z2 z z2 z | %7
 [A,,,E,,]6 z2 z z2 z | [D,,A,,D,]6- [D,,A,,D,]3 z2 z | [G,,,D,,G,,]6- [G,,,D,,G,,]3 z2 z | %10
 [E,,,B,,,E,,]6- [E,,,B,,,E,,]3 z2 z | [A,,,E,,A,,]6- [A,,,E,,A,,]3 z2 z | %12
 [E,,,B,,,E,,]6- [E,,,B,,,E,,]3 z2 z | [A,,,E,,A,,]6- [A,,,E,,A,,]3 z2 z | %14
 [D,,A,,D,]6- [D,,A,,D,]3 z2 z | [G,,,D,,G,,]6- [G,,,D,,G,,]3 z2 z | %16
 [E,,,B,,,E,,]6- [E,,,B,,,E,,]3 z2 z | [A,,,E,,A,,]6- [A,,,E,,A,,]3 z2 z | %18
 [E,,,B,,,E,,]6- [E,,,B,,,E,,]3 z2 z | [A,,,E,,A,,]6- [A,,,E,,A,,]3 z2 z | %20
 [G,,,G,,]6 [G,,,G,,]3- [G,,,G,,]2 z | [C,,G,,]6- [C,,G,,]3 z2 z | [C,,C,]6- [C,,C,]3 z2 z | %23
 [C,,C,]6- [C,,C,]3 z2 z | [C,,G,,]6- [C,,G,,]3 z2 z | [F,,,F,,]6- [F,,,F,,]3- [F,,,F,,]2 z | %26
 [C,,G,,]6- [C,,G,,]3 z2 z | [C,,G,,]6- [C,,G,,]3 z2 z | z6 [C,,G,,]3- [C,,G,,]2 z | %29
 [C,,G,,]6- [C,,G,,]3 z2 z | z6 [_A,,,_A,,]3- [A,,,A,,]2 z | z6 [G,,,G,,]3- [G,,,G,,]2 z | %32
 [D,,,D,,]6 [G,,,G,,]3- [G,,,G,,]2 z | z6 G,3- G,2 A, | C6- C3 B,2 A, | G,6- G,3 A,2 E, | %36
 D,6- D,3 E,2 B,, | A,,6- A,,3 ^F,,3 | F,,6- F,,3 F,,3 | [E,,G,,]6 D,3- D,2 E, | C,3 B,,3 A,,6 x | %41
 E,,3 E,,3 [E,,,E,,]6 x | [E,,,B,,,E,,]6- [E,,,B,,,E,,]3 z2 z | [A,,,E,,A,,]6- [A,,,E,,A,,]3 z2 z | %44
 [A,,,E,,]6- !fermata![A,,,E,,]6 |] %45
V:5
 x12 | x12 | x12 | x12 | x12 | x12 | x12 | x12 | x12 | x12 | x12 | x12 | x12 | x12 | x12 | x12 | %16
 x12 | x12 | x12 | x12 | x12 | x12 | x12 | x12 | x12 | x12 | x12 | x12 | x12 | x12 | x12 | x12 | %32
 x12 | [C,,G,,]6- [C,,G,,]3 x2 x | [C,,G,,]6- [C,,G,,]3 x2 x | [C,,G,,]6- [C,,G,,]3 x2 x | %36
 [C,,G,,]6- [C,,G,,]3 x2 x | D,,6- D,,3- D,,3 | G,,,6- G,,,3- G,,,3 | x6 [G,,,G,,]3- [G,,,G,,]2 x | %40
 C,,3 x3 x3 x3 x | x13 | x12 | x12 | x12 |] %45

